X:4
T:Mui\~neira de Lugo
R:muineira
H:Original key C
O:Galicia
Z:id:hn-muineira-4
M:6/8
L:1/8
K:D
dc | A3- Adc | A3- Adc | ABA GFG | B2A- Adc |
A3- Adc | A3- Adc | ABA GFE |1 D4 :|2 D3 ||
|: F2F | F2G AGF | E3 G2G | G2A BAG | F2D F2F |
F2G AGF | E3 B2B | ABA GFE |1 D3 :|2 D3-D || 

